dist/img/quote.svg

<svg width="34" height="23" viewBox="0 0 34 23" fill="none" xmlns="http://www.w3.org/2000/svg">
<g clip-path="url(#clip0)">
<path d="M8.73857 14.5468C8.41184 14.9762 8.05292 15.3805 7.66485 15.7561C5.62657 17.7307 2.91628 18.8183 0.033707 18.8183L0.0337067 23C8.37828 23 15.1429 16.447 15.1429 8.36377L15.1091 7.31826C15.1091 3.27651 11.7269 1.86752e-06 7.55457 1.50276e-06C3.38228 1.13801e-06 -2.09044e-06 3.27679 -2.44376e-06 7.31826C-2.79707e-06 11.3597 3.38228 14.6362 7.55457 14.6362C7.95743 14.6362 8.35285 14.6056 8.73857 14.5468ZM27.5957 14.5468C27.269 14.9762 26.91 15.3805 26.522 15.7561C24.4837 17.7307 21.7734 18.8183 18.8909 18.8183L18.8909 23C27.2354 23 34 16.447 34 8.36377L33.9663 7.31826C33.9663 3.27651 30.584 3.51606e-06 26.4117 3.15131e-06C22.2394 2.78656e-06 18.8571 3.27679 18.8571 7.31826C18.8571 11.3597 22.2394 14.6362 26.4117 14.6362C26.8146 14.6362 27.21 14.6056 27.5957 14.5468Z" fill="#E0E0E0"/>
</g>
<defs>
<clipPath id="clip0">
<rect width="34" height="23" fill="white" transform="translate(34 23) rotate(-180)"/>
</clipPath>
</defs>
</svg>

<svg xmlns="http://www.w3.org/2000/svg" fill="none" viewBox="0 0 34 23"><g clip-path="url(#clip0)"><path fill="#E0E0E0" d="M8.739 14.547a10.7 10.7 0 01-1.074 1.21C5.627 17.73 2.916 18.817.034 18.817V23c8.344 0 15.109-6.553 15.109-14.636l-.034-1.046C15.11 3.277 11.727 0 7.555 0 3.382 0 0 3.277 0 7.318c0 4.042 3.382 7.318 7.555 7.318.402 0 .798-.03 1.184-.09zm18.857 0c-.327.43-.686.833-1.074 1.21-2.038 1.974-4.749 3.061-7.631 3.061V23C27.235 23 34 16.447 34 8.364l-.034-1.046C33.966 3.277 30.584 0 26.412 0c-4.173 0-7.555 3.277-7.555 7.318 0 4.042 3.382 7.318 7.555 7.318.403 0 .798-.03 1.184-.09z"/></g><defs><clipPath id="clip0"><path fill="#fff" d="M0 0h34v23H0z" transform="rotate(-180 17 11.5)"/></clipPath></defs></svg>
